X:7687
T:Trip to the Cottage. CJF.011
O:england
M:6/8
L:1/8
Q:120
C:
S: C.J.Fox MS, 1829/33, Beverley,E.Yorks.
R:Jig
A:East Yorkshire
B:Kidson Coll.Mitchell Lib.M1805
N:Penultimate note c has # faintly marked above.
K:G
(B/c/)|(dB).B (BG).G|(cA).A (AF).D|(DG).G (FA).A|(GB).BA2(B/c/)|
(dB).B (BG).G|(cA).A (AF).D|(DG).G (FA).A|
(BG).GG2:|:d|(gf).ed2B|(ed).c (Bc).d|(ec).A (dB).G|\
(FA).FD2d|(gf).ed2B|(ed).c (Bc).d|(ef).g (fe).d|(e" D Capo"d).cd2:|


